X:1
T:Cueur prisonnier
T:Cueur prisonnier
T:Cornelius Canis
C:Cornelius Canis
%%score [ 1 [ 2 3 ] 4 ]
L:1/8
Q:1/4=120
M:2/2
K:F
V:1 treble nm="Soprano" snm="S"
V:2 treble-8 nm="Tenor 1" snm="T 1"
V:3 treble-8 nm="Tenor 2" snm="T 2"
V:4 bass nm="Bass" snm="B"
V:1
 z4 F4 | A6 B2 | c2 c2 f4- | f2 e2 d2 d2 | c4 z2 A2 | d4 c2 B2- | BA A4 G2 | A8 | z4 F4 | B6 A2 | %10
w: Cueur|pri- son-|nier, je le|_ vous di- sois|bien, je|le vous di-|* * * sois|bien,|je|le- *|
 G2 G2 A4 | F2 G3 F F2- | F2 E2 F4 | z2 c2 c2 c2 | A2 A2 B4 | G4 A4- | A2 G2 F4 | E2 c2 c2 B2 | %18
w: * vous di-||* sois bien|qu'en la voi-|ant vous ne|se- riez|_ _ plus|mien, si j'eus- se'eu|
 A3 B c2 d2- | d2 c4 B2 | A4 G2 d2 | e3 d e2 d2- |"^-natural" dc c4 B2 | c4 z4 | G4 c2 A2 | %25
w: lors _ _ le|_ sens de|vous en ten-|||dre,|mais qui eut|
 G2 A2 F2 G2 | A4 z2 A2 | A2 A2 G2 B2- | BA A4 G2 | A4 z2 c2 | F2 A2 G2 G2 | A2 F2 G2 G2- | %32
w: sceu, mais qui eut|sceu de-|meur m'at- ten- *||dre, qu'ung|si grant mal ad-|vient d'ung si grant|
 G2 A2 G2 F2- | F2 ED E2 E2 | FEFG A2 B2 | A2 G3 F F2- | F2 E2 F4 | z2 c2 F2 A2 | G2 G2 A2 F2 | %39
w: _ _ _ _|* * * bien, [d'ung|si _ _ _ _ grant-||* * bien,]|qu'ung si grant|mal ad- vient d'ung|
 G2 G4 A2 | G2 F4 ED | E2 E2 FEFG | A2 B2 A2 G2- | G2 F4 E2 | F8 |] %45
w: si grant _|_ _ _ _|bien, [d'ung si _ _ _|_ grant _ _|_ _ _|bien.]|
V:2
 f4 d2 B2 | f8 | z2 f2 f3 g | a2 g2 a2 b2 | g4 f2 f2 | f3 g a2 d2- | d2 f4 ed | c2 c4 f2- | %8
w: Cueur pri- son-|nier,|je le _|_ vous di- *|sois bien, je|le _ _ vous|_ di- sois _|bien, je le|
 fe d4 c2 | d2 Bc de f2- | f2 e2 f2 c2 | d2 G2 B4 | c2 z c c2 c2 | A4 z2 c2- | c2 d4 B2 | %15
w: _ _ _ vous|di- sois _ _ _ _|_ _ bien, [vous|di- * sois|bien,] qu'en la voi-|ant vous|_ ne se-|
 c4 A2 FG | AB c4 B2 | c2 e2 e2 d2 | f2 f2 e2 d2 | f4 e2 g2 | e2 f2 d4 | cdef ga b2 | g2 a2 g4 | %23
w: riez _ _ _|_ _ _ plus|mien, si j'eus- se'eu|lors le sens de|vous en- ten-|ten- * *|||
 e4 z4 | e4 c2 d2 | e2 f3 d e2 | f4 z2 d2 | f2 f2 d2 g2- | g2 f4 e2 | f2 f4 c2 | cB f4 e2 | %31
w: dre,|mais qui eut|sceu, [mais qui eut|sceu,] de-|meur m'at- ten- *||dre qu'ung si|grant _ _ _|
 fedc d4 | e2 c2 d2 B2 | c4 z2 c2 | c2 c2 f4- | f2 e2 d2 B2 | c4 A2 f2- | f2 c2 dc f2- | %38
w: mal, _ _ _ qu'ung|si grant mal ad-|vient, ad-|vient d'ung si-|* grant _ _|_ bien, qu'ung|_ si grant- * *|
 f2 e2 fedc | d4 e2 c2 | d2 B2 c4 | z2 c2 c2 c2 | f6 e2 | d2 B2 c4 | c8 |] %45
w: * * mal, _ _ _|qu'ung si grant|_ _ mal|ad- vient d'ung|si grant|_ _ _|bien.|
V:3
 z8 | z4 F4 | A6 B2 | c2 c2 f4- | f2 e2 d2 c2 | B4 A2 G2- | G2 F2 B4 | A4 z2 A2 | d2 Bc de f2- | %9
w: |Cueur|pri- son-|nier, je le|_ vous di- *||* * sois|bien, je|le vous _ _ _ di-|
 f2 e2 f2 F2 | c6 A2 | A2 B3 AGF | G4 F4- | F4 z2 f2 | f2 f2 d2 d2 | e3 d cBAG | F2 G2 A2 F2 | G8 | %18
w: * sois bien, je|le vous|di- * * * *|sois bien,,|_ qu'en|la voi- ant vous|ne se- riez _ _ _|_ _ _ plus|mien,|
 z2 c2 c2 B2 | A3 B c2 d2- | d2 c4 B2 | c3 B/A/ G2 g2 | e2 f2 d4 | c2 c2 A2 B2 | c4 z4 | c4 d2 B2 | %26
w: si j'eus- se'eu|lors _ _ le|_ sens de|vous _ _ _ en-|ten- * *|dre, mais qui eut|sceu,|mais qui eut|
 c2 c2 c2 c2 | d2 c2 B2 d2- | dc c4 B2 | c4 z4 | f4 c3 e | d2 c4 B2 | c2 A2 B2 F2 | G6 G2 | %34
w: sceu de- meur m'at-|ten- * * *||dre,|qu'ung si grant|mal, qu'ung si|grant- * * *|mal ad-|
 AGAB c2 d2 | c3 B A2 GF | G4 F4 | z4 f4 | c3 e d2 c2- | c2 B2 c2 A2 | B2 F2 G4- | G2 G2 AGAB | %42
w: vient _ _ _ _ d'ung|si _ _ grant _|_ bien,|qu'ung|si _ _ grant|_ _ _ _|* * mal|_ ad- vient _ _ _|
 c2 d2 c3 B | A2 GF G4 | F8 |] %45
w: _ d'ung si _|_ grant- * *|bien.|
V:4
 z8 | z2 F,2 D,2 B,,2 | F,3 E, D,2 D,2 | C,2 C4 B,2 | C4 F,4 | z4 z2 B,,2 | D,6 E,2 | F,4 z2 F,2 | %8
w: |Cueur pri- son-|nier, _ _ je|le vous di-|sois bien,|cueur|pri- son-|nier, je|
 B,6 A,2 | G,2 G,2 F,4 | z2 C,2 F,4- |"^b" F,2 E,2 D,2 D,2 | C,4 z2 C2 | C2 C2 A,2 F,2 | %14
w: le vous|di- sois bien,|je le|_ vous di- sois|bien, qu'en|la voi- ant, qu'en|
 F,2 F,2 G,4 | C,4 F,4- | F,2 E,2 D,2 D,2 | C,2 C,2 C,2 G,2 | F,3 E, C,2 G,2 | F,3 G, A,2 G,2 | %20
w: la voi- ant|vous ne|_ se- riez plus|mien, si j'eus- se'eu|lors _ _ le|sens _ _ de|
 A,2 F,2 G,4 | C,2 C4 B,2 | C2 F,2 G,4 | z2 C,2 F,2 D,2 | C,4 z4 | z2 F,2 B,2 G,2 | F,4 z2 F,2 | %27
w: vous en- ten-|dre, de vous|en- ten- dre,|mais qui eut|sceu,|mais qui eut|sceu de-|
 F,2 F,2 G,3 A, | B,2 F,2 G,4 | F,8 | z4 z2 C2 | F,2 A,2 G,4 | z2 F,2 B,,2 D,2 | C,6 C,2 | %34
w: meur m'at- ten- *||dre,|qu'ung|si grant mal,|qu'ung si grant|mal ad-|
 F,6 B,,2 | F,2 C,2 D,4 | C,4 F,4- | F,4 z4 | z2 C2 F,2 A,2 | G,4 z2 F,2 | B,,2 D,2 C,4- | %41
w: vient d'ung|si grant _|_ bien,|_|qu'ung si grant|mal, qu'ung|si grant mal|
 C,2 C,2 F,4- | F,2 B,,2 F,2 C,2 | D,4 C,4 | F,8 |] %45
w: _ ad- vient|_ d'ung si grant|_ _|bien.|

